src/images/icons/compass.svg

<svg width="40" height="40" viewBox="0 0 40 40" fill="none" xmlns="http://www.w3.org/2000/svg">
<path d="M32.4691 9.89703C30.0593 7.48727 27.0747 5.86141 23.8247 5.14633V3.82469C23.8247 2.80313 23.4269 1.84289 22.7051 1.12109C21.9833 0.398125 21.0226 0 20 0C17.8911 0 16.1753 1.7157 16.1753 3.82469V5.14633C12.9252 5.86148 9.9407 7.48727 7.53093 9.89703C4.20031 13.2277 2.36609 17.6559 2.36609 22.3661C2.36609 27.0763 4.20039 31.5045 7.53093 34.8352C10.8615 38.1658 15.2898 40 20 40C24.7102 40 29.1384 38.1657 32.4691 34.8352C35.7997 31.5046 37.6339 27.0763 37.6339 22.3661C37.6339 17.6559 35.7997 13.2276 32.4691 9.89703ZM17.7378 4.8757V3.82469C17.7378 2.57727 18.7526 1.5625 20 1.5625C21.2331 1.5625 22.2622 2.59148 22.2622 3.82469V4.8757C20.7649 4.68141 19.2351 4.68141 17.7378 4.8757ZM20 38.4375C11.1382 38.4375 3.92859 31.2279 3.92859 22.3661C3.92859 14.2025 10.0469 7.44125 17.9388 6.42641C19.3061 6.25305 20.6938 6.25305 22.0612 6.42641C29.9531 7.44125 36.0714 14.2025 36.0714 22.3661C36.0714 31.2279 28.8618 38.4375 20 38.4375Z" fill="white"/>
<path d="M20 7.85596C11.9991 7.85596 5.48993 14.3652 5.48993 22.366C5.48993 24.935 6.17415 27.4621 7.46876 29.6739C7.68665 30.0463 8.16524 30.1713 8.53766 29.9535C8.91009 29.7355 9.03524 29.257 8.81727 28.8846C7.79423 27.1367 7.19962 25.1677 7.07719 23.1473H7.81712C8.2486 23.1473 8.59837 22.7975 8.59837 22.366C8.59837 21.9346 8.2486 21.5848 7.81712 21.5848H7.07673C7.48204 14.808 13.1231 9.41846 20 9.41846C26.877 9.41846 32.518 14.8079 32.9234 21.5848H32.183C31.7515 21.5848 31.4017 21.9346 31.4017 22.366C31.4017 22.7975 31.7515 23.1473 32.183 23.1473H32.9234C32.518 29.9242 26.877 35.3137 20 35.3137C17.6495 35.3137 15.3459 34.6741 13.3382 33.4641C12.9688 33.2414 12.4886 33.3604 12.2658 33.7299C12.0431 34.0995 12.1621 34.5796 12.5316 34.8024C14.7828 36.1591 17.3653 36.8762 20 36.8762C28.0009 36.8762 34.5101 30.367 34.5101 22.3661C34.5101 14.3652 28.0009 7.85596 20 7.85596Z" fill="white"/>
<path d="M17.3963 19.2906C17.177 19.3692 16.998 19.5492 16.9215 19.7694L14.4318 26.94C14.3336 27.2228 14.4057 27.5369 14.6173 27.7487C14.8269 27.9582 15.146 28.0316 15.426 27.9342L22.5965 25.4445C22.8187 25.3678 23.0013 25.1848 23.0783 24.9627L25.568 17.7922C25.6662 17.5094 25.5941 17.1952 25.3824 16.9835C25.1706 16.7718 24.8565 16.6996 24.5737 16.798L17.4032 19.2876C17.4009 19.2885 17.3987 19.2898 17.3963 19.2906ZM17.9887 21.4597L18.8951 22.3662L18.8916 22.3698C18.5865 22.6748 18.5865 23.1695 18.8916 23.4746C19.0441 23.6272 19.2441 23.7034 19.444 23.7034C19.6439 23.7034 19.8439 23.6271 19.9964 23.4746L20 23.471L20.9064 24.3774L16.4367 25.9294L17.9887 21.4597ZM22.0113 23.2726L21.1048 22.3661L21.1834 22.2876C21.4884 21.9825 21.4884 21.4878 21.1834 21.1827C20.8783 20.8776 20.3836 20.8776 20.0785 21.1827L20 21.2612L19.0936 20.3548L23.5633 18.8029L22.0113 23.2726Z" fill="white"/>
<path d="M18.9852 14.8813V13.2117L21.2323 15.4364C21.4535 15.6555 21.7935 15.7223 22.0812 15.6029C22.3719 15.4824 22.5619 15.1991 22.5631 14.8844L22.5772 11.3418C22.5789 10.9103 22.2305 10.5592 21.7991 10.5575C21.798 10.5575 21.797 10.5575 21.7959 10.5575C21.3659 10.5575 21.0164 10.9052 21.0147 11.3356L21.008 13.0156L18.7536 10.7835C18.5296 10.5617 18.1943 10.4963 17.9032 10.6175C17.6122 10.7389 17.4227 11.0233 17.4227 11.3385V14.8811C17.4227 15.3126 17.7725 15.6624 18.204 15.6624C18.6355 15.6624 18.9852 15.3128 18.9852 14.8813Z" fill="white"/>
<path d="M22.5773 29.762C22.5773 29.3305 22.2275 28.9807 21.796 28.9807H18.7276C18.0081 28.9807 17.4227 29.566 17.4227 30.2856V30.3996C17.4227 30.8956 17.7109 31.3562 18.1568 31.573L20.1394 32.5373H18.204C17.7725 32.5373 17.4227 32.887 17.4227 33.3185C17.4227 33.75 17.7725 34.0998 18.204 34.0998H21.2584C21.9778 34.0998 22.5632 33.5145 22.5632 32.7949C22.5632 32.2991 22.2751 31.8385 21.8291 31.6215L19.612 30.5431H21.7961C22.2275 30.5432 22.5773 30.1934 22.5773 29.762Z" fill="white"/>
<path d="M20 4.06551C20.3471 4.06551 20.6598 3.82621 20.7523 3.49239C20.843 3.16528 20.7052 2.80582 20.4174 2.62489C19.8308 2.25606 19.0633 2.81137 19.2458 3.48653C19.3369 3.82332 19.6504 4.06551 20 4.06551Z" fill="white"/>
<path d="M10.7383 31.4279C10.1486 31.0349 9.36303 31.6043 9.55272 32.2852C9.64217 32.6064 9.93303 32.8401 10.2665 32.8573C10.599 32.8744 10.9142 32.6674 11.0335 32.3578C11.1623 32.0232 11.04 31.6254 10.7383 31.4279Z" fill="white"/>
</svg>

<svg width="40" height="40" fill="none" xmlns="http://www.w3.org/2000/svg"><path d="M32.47 9.897a17.515 17.515 0 0 0-8.645-4.75V3.824a3.799 3.799 0 0 0-1.12-2.704A3.797 3.797 0 0 0 20 0a3.829 3.829 0 0 0-3.825 3.825v1.321a17.515 17.515 0 0 0-8.644 4.751 17.519 17.519 0 0 0-5.165 12.47c0 4.71 1.834 9.137 5.165 12.468A17.518 17.518 0 0 0 20 40a17.52 17.52 0 0 0 12.47-5.165 17.519 17.519 0 0 0 5.164-12.469c0-4.71-1.834-9.138-5.165-12.469ZM17.737 4.876V3.825A2.265 2.265 0 0 1 20 1.562a2.283 2.283 0 0 1 2.262 2.263v1.05a17.633 17.633 0 0 0-4.524 0ZM20 38.437c-8.862 0-16.071-7.21-16.071-16.07 0-8.165 6.118-14.926 14.01-15.94a16.403 16.403 0 0 1 4.122 0c7.892 1.014 14.01 7.776 14.01 15.94 0 8.86-7.21 16.07-16.071 16.07Z" fill="#fff"/><path d="M20 7.856c-8 0-14.51 6.51-14.51 14.51 0 2.569.684 5.096 1.979 7.308a.781.781 0 0 0 1.348-.79 12.91 12.91 0 0 1-1.74-5.737h.74a.781.781 0 0 0 0-1.562h-.74C7.482 14.808 13.123 9.418 20 9.418s12.518 5.39 12.923 12.167h-.74a.781.781 0 1 0 0 1.562h.74C32.518 29.924 26.877 35.314 20 35.314c-2.35 0-4.654-.64-6.662-1.85a.781.781 0 0 0-.806 1.338A14.469 14.469 0 0 0 20 36.876c8 0 14.51-6.509 14.51-14.51 0-8-6.51-14.51-14.51-14.51Z" fill="#fff"/><path d="M17.396 19.29a.791.791 0 0 0-.474.48l-2.49 7.17a.782.782 0 0 0 .994.994l7.17-2.49a.792.792 0 0 0 .482-.481l2.49-7.17a.781.781 0 0 0-.994-.995l-7.17 2.49c-.003 0-.005.002-.008.003Zm.593 2.17.906.906-.003.004a.781.781 0 1 0 1.104 1.105L20 23.47l.906.906-4.47 1.552 1.553-4.47Zm4.022 1.813-.906-.907.078-.078a.781.781 0 0 0-1.105-1.105L20 21.26l-.906-.906 4.47-1.552-1.553 4.47Zm-3.026-8.392v-1.67l2.247 2.225a.781.781 0 0 0 1.33-.552l.015-3.542a.781.781 0 0 0-.778-.785h-.003c-.43 0-.78.348-.781.779l-.007 1.68-2.254-2.232a.782.782 0 0 0-1.331.554v3.543a.781.781 0 0 0 1.562 0Zm3.592 14.881a.781.781 0 0 0-.781-.781h-3.068c-.72 0-1.305.585-1.305 1.305v.114c0 .496.288.956.734 1.173l1.982.964h-1.935a.781.781 0 1 0 0 1.563h3.054a1.306 1.306 0 0 0 .571-2.479l-2.217-1.078h2.184c.431 0 .781-.35.781-.781ZM20 4.066c.347 0 .66-.24.752-.574a.786.786 0 0 0-.335-.867c-.586-.369-1.354.186-1.171.862a.79.79 0 0 0 .754.579Zm-9.262 27.362c-.59-.393-1.375.176-1.185.857.09.321.38.555.713.572a.789.789 0 0 0 .768-.5.787.787 0 0 0-.296-.93Z" fill="#fff"/></svg>
